X:59
T:Royal Volunteers, The
M:6/8
L:1/8
B:Thompson's Compleat Collection of 200 Favourite Country Dances (London, 1765)
Z:Transcribed and edited by Flynn Titford-Mock, 2007
Z:abc's:AK/Fiddler's Companion
K:D
d2D d2D | BAG FED | FGA Bcd | efd {d}cBA | d2D d2D | BAG FED | FGA Bcd | egf {f}e3 :|
|: A3 AB=c | Bd=c BAG | B3 B^cd | ced {d}cBA | a2A g2G | f2F e2E | d2D FGA | Bdc d3 :|

